X:1
T:Donne belle
T:Donne belle
T:Barbara Strozzi
T:Source : Arie---Venetia---F.Magni (Gardano)---1664. Editor : André Vierendeels (21/03/15).
T:Notes : Original clefs : C1, F4 (C3, C4) Editorial accidentals above the staff in BC, from m8 to m10, one octave higher in original print in BC, from m8 to m16, clef notated in C3 in BC, from m24 to m56,clef  notated in C3 in BC, from m92 to m99, clef notated in C4 Dotted brackets indicate black notes m29 in S, "si" notated as "do" in original print m 43 in BC, "fa" notated as "sol" in original print Parole del Sig.Brunacci Figures in BC are notated in original print 
T:Presto
C:Barbara Strozzi
%%score 1 { 2 | 3 }
L:1/8
Q:1/4=90
M:4/4
K:Bb
V:1 treble nm="Soprano" snm="S"
V:2 treble nm="BC" snm="BC"
V:3 bass 
V:1
 z4 cB _AG | _AG/A/ F2 fe _dc | _dc/d/ Bc B_A GA | F>_A G>B A>c B>d | c4 fe _dc | _dcB_A BA GA | %6
w: Don- * ne _|bel- * * le, don- * ne _|bel- * * le, è va- * mi- *|tà, _ _ _ _ _ _ _|_ don- * ne _|bel- * le, è va- * mi- *|
w: ||||||
 F3 _A BA GA |[M:6/8] F2 F cde | fed efg | cfg ed>c | c2 G Bcd | edc _dcB | cBc cB>c | %13
w: tà, è va- * mi- *|ta, il di- re ch'il|co- re al ma- le d'a-|mo- re, ri- me- dio non|ha, il di- re ch'il|co- re al ma- le d'a-|mo- re, ri- me- dio non|
w: |||||||
 _A2 c d>f=e/g/ | ffF G>_AB/c/ |[M:9/8] _AGA AG>F F3 |[M:4/4] cB _AG AG AF | fe _dc dc/d/ Bc | %18
w: ha, ri- me _ _ _|_ dio, ri- me- * * *|* dio, ri- me- dio non ha.|Don- * ne _ bel- * le, _|don- * ne _ bel- * * le, è|
w: |||||
 B_A GA F>A G>B |"^b" _A>c B>d c4 | fe _dc dcB_A | B_A GA F3 A | B_A GA F4!fine! || %23
w: va- * mi- * ta _ _ _|_ _ _ _ _|don- * ne _ bel- * le, è|va- * mi- * ta, è|va- * mi- * ta.|
w: |||||
[M:3/2] z4 _A4 B4 | c6 B2 _A4 | B4 c8 | F6 G2 _A4 | z4 _A4 B4 | c6 d2 B4 | c4 B8 | _A6 B2 c4 | %31
w: Al- tri'ha|fe- * de'al-|la spe-|ran- za, _|al- tri'hà|tem- * po'i|vo- ti|por- ge, _|
w: Non tor-|men- * ta|ge- lo-|si- a, _|cru- del-|ta non cru-|cia il|se- no, _|
 z4 _A4 A4 | e6 d2 c4 | _d4 e8 | _A6 B2 c4 | z4 c4 d4 | e6 f2 e4 | E4 D4 C4 | C8 C4 | z4 e4 c4 | %40
w: al- tri|pu- * re'al-|fin s'ac-|cor- ge _|che non|val- la _|lon- ta- *|nan- za,|al- tri'hà|
w: sia- si|A- do- ne,|o sia|Bi- re- no|mai di-|ra _ la|for- te è|ri- a,|non- tor-|
 _d6 d2 c4 | B4 e8 | c6 B2 _A4 | z4 _A4 G4 | F6 G2 _A4 | B4 B4 F4 | =E6 D2 C4 | z4 _A4 G4 | %48
w: fe- * de'al-|la spe-|ran za, _|al- tro|tem- * po'i|vo- ti _|por- ge, _|al- tri|
w: men- * ta|ge- lo-|si- a, _|cru- del-|ta _ _|non cru- cia'il|se- * no,|sia- si|
 _A6 A2 G4 | F4 B8 | G6 F2 E4 | z4 G4 A4 | B6 c2 d4 | e4 E8 | B8 B4 | z4 c4 c4 | f12- | f12- | %58
w: pu- * re'al-|fin s'ac-|cor- ge _|che non|val- la _|lon- ta-|nan- za,|che non|val-||
w: A- do- no,|o sia|Bi- re- no,|mai di-|ra la for-|te è|ri- a,|mai di-|ra,|_|
 f12- | f12 | f4 B4 c4 | =E6 c2 _A4 | _A4 G4 F4 | F8 F4 | z4 f4 f4 | e6 d2 c4 | z4 d4 e4 | %67
w: ||la, che non|val- la _|lon- ta- *|nan- za,|i- o,|i- o,, _|i- o,-|
w: ||* mai di-|ra _ la|for- te è|ri- a,|tal, tal,|tal, tal, _|tal, tal,|
 =B4 c4 d4 | e4 d4 c4 | c4 e4 e4 | e4 f4 c4 | _d12- | d12- | d4 c4 c4 | c4 d4 A4 | =B12- | B12- | %77
w: i- o ch'a-|pro- va il|fè per pie-|ta, _ _|||* per pie-|ta, _ _|||
w: tal, tal sem-|pre'in li- ber-|ta, al- fin,|al- fin, al-|fin,|_|* al- fin|s'ac- cor- ge-|ra,|_|
 B4 c4 _A4 | G4 G4 G4 | G12 | z4 F4 G4 | _A4 A4 B4 | c4 c4 d4 | e4 e4 f4 | g4 c8 | c12- | %86
w: * per pie-|tà vel di-|ro,|il ri-|me- dio d'A-|mor, il ri-|me- dio d'A-|mor, _|è|
w: * al fin|s'ac- cor- ge-|ra,|che'l do-|ler- si d'A-|mo- re è|u- na fol-|li- a,|è|
 c4 f4 g4 | f2 e2 d8 | c4 C4 D4 | E4 E4 F4 | G4 G4 A4 | B4 B4 c4 | d4 G8- | G12- | G4 c4 d4 | %95
w: _ l'in- co-|stan- * *|za, il ri-|me- dio d'A-|mor, il ri-|me- dio d'A-|mor, è|_|* l'in- co-|
w: _ cre- de-|te- lo a|me, che'l do-|ler- si d'A-|mo- re,- ch'el|do- ler- si|d'A- mor,|_|* è u-|
 c2 B2 A8 | G4 g4 f4 | e4 d4 c4 | =B4 c4 B4 | _A4 G4 F4 | E4 D4 E4 | E4 D4 E4 | C4 c4 G4 | _A8 z4 | %104
w: stan- * *|za, e cre-|de- te- lo'à|me, e cre-|de- te- lo'a|me, che _|co- si _|sta, co- si|sta,|
w: na fol- li-|a, e- cre-|de- te- lo'à|me, e cre-|de- te- lo'à|me, che _|co- si _|sta, co- si-|sta,|
 z4 f4 c4 | _d4 f4 e4 | _d4 c4 B4 | _A4 G4 A4 | _A4 G4 F4 | F12- | F12- | F4 B4 c4 | _A4 G4 F4 | %113
w: co- si|sta, e cre-|de- te- lo'à|me che _|co- si _|sta,|_|* che _|co- si _|
w: co- si|sta, e cre-|de- te lo'à|me che _|co- si _|sta,|_|* che _|co- si _|
 F12!D.C.! |] %114
w: sta.|
w: sta|
V:2
 z8 | z8 | z8 | z8 |"^b" z8 | z8 | z8 |[M:6/8] z6 |"^b" z6 | z6 | z6 | z6 | z6 | z6 | z6 | %15
[M:9/8] z9 |[M:4/4] z8 | z8 | z8 | z8 | z8 | z8 | z8 ||[M:3/2] z12 | z12 | z12 | z12 | z12 | z12 | %29
 z12 | z12 | z12 | z12 | z12 | z12 | z12 | z12 | z12 | z12 | z12 | z12 | z12 | z12 | z12 | z12 | %45
 z12 | z12 | z12 | z12 | z12 | z12 | z12 | z12 | z12 | z12 | z12 | z12 | z12 | z12 | z12 | z12 | %61
 z12 | z12 | z12 | z12 | z12 | z12 | z12 | z12 | z12 | z12 | z12 | z12 | z12 | z12 | z12 | z12 | %77
 z12 | z12 | z12 | z12 | z12 | z12 | z12 | z12 | z12 | z12 | z12 | z12 | z12 | z12 | z12 | z12 | %93
 z12 | z12 | z12 | z12 | z12 | z12 | z12 | z12 | z12 | z12 | z12 | z12 | z12 | z12 | z12 | z12 | %109
 z12 | z12 | z12 | z12 | z12 |] %114
V:3
"^b" F,,8 | F,E, _D,C, B,,4 | B,_A, G,F, B,,2 C,2 | F,2 =E,2 F,2 G,2 | _A,B, A,G, F,G, A,F, | %5
 B,_A, G,F, B,,2 C,2 | F,E, _D,C, B,,2 C,2 |[M:6/8] F,3 F,F,G, | A, =B,2 C B,2 | _A,G,F, G,2 G, | %10
 CDE DCB, | CB,_A, B, G,2 | _A, _D2 E2 E, | _A,3 B,2 C | _D2 =D E2 =E |[M:9/8] F B,2 C3 F,3 | %16
[M:4/4]"^b" F,,4 F,E, _D,C, | B,,4 B,_A, G,F, | B,,2 C,2 F,2 =E,2 | F,2 G,2 _A,B, A,G, | %20
 F,G, _A,F, B,A, G,F, | B,,2 C,2 F,E, _D,C, | B,,2 C,2 F,,4 ||[M:3/2] F,12 | F12- | F8 E4 | %26
 _D4 C6 B,2 | _A,8 G,4 | F,4 C4 _D4 | E4 E,8 | _A,12 | _A,12 | _A12- | A8 G4 | F4 E6 _D2 | C8 B,4 | %36
 _A,4 G,4 F,4 | G,12 | C12 | C12 | B,4 _A,8 | G,12 | _A,8 F,4 | F,4 F4 =E4 | F8 E4 | D4 _D8 | C12 | %47
 F,4 F4 E4 | F4 E8 | D4 C4 B,4 | E6 D2 C4 | E12 | D12 | C12 | B,4 _A,4 G,4 | F,12 | z4 _A,4 B,4 | %57
 C6 B,2 _A,4 | B,4 C8 | F,8 E,4 | _D,12 | C,8 F,,4 | B,,4 C,8 | F,12 | F,12 | z4 C4 C4 | %66
 B,6 A,2 G,4 | _A,4 F,8 | G,8 G,,4 | C,12 | C12 | z4 B,4 B,4 | B,4 C4 G,4 | _A,12- | A,12 | %75
 z4 G,4 G,4 | G,4 _A,4 E,4 | F,12 | G,8 G,,4 | C,12 | z12 | z4 F,,4 G,,4 | _A,,4 A,,4 B,,4 | %83
 C,4 C,4 D,4 | E,4 E,4 F,4 | G,4 A,4 =B,4 | C4 _A,4 E,4 | F,4 G,4 G,,4 | C,12 | z4 C,4 D,4 | %90
 E,4 E,4 F,4 | G,4 G,4 A,4 | B,4 B,4 C4 | D4 =E4 ^F4 | G4 E4 B,4 | C4 D4 D,4 | G,12 | C4 B,4 _A,4 | %98
 G,4 _A,4 G,4 | F,4 E,4 _D,4 | C,4 F,,8 | G,,12 | C,12 | z4 F,4 C,4 | _D,4 _D4 A,4 | B,4 _D4 C4 | %106
 B,4 _A,4 G,4 | F,4 B,,8 | C,12 | F,,4 F,4 C,4 | _D,4 D,4 _A,,4 | B,,12 | C,12 | F,,12 |] %114

